X: 20728
T: Johnny Cope
R: hornpipe
M: 4/4
K: Adorian
dB|:A2AB A2Bd|eged BGAG|EGGd GdGA|BAGB dBGA|
BAAB A2Bd|eged BABd|egfa gedB|1 BAAG AGEG:|2 BAAG A2AB||
|:cGcd c2AG|cdea gedB|c2 (3ABc eced|cdec dBGB|
cGcd c2AG|cdea ged2|ebag (3efg ed|BAAB A2AB:|
|:cGcB AeAG|ABcd egdc|BG~G2 dG~G2|cdec dBGB|
cGcB AeAG|ABcd (3efg dg|ebag (3efg ed|1 BAAB A2AB:|2 BAAB A2Bd||
|:eaag a2ga|bgae gbag|eggd gdba|~g2 (3bag aged|
e2ag a2ga|bgae g2ed|(3efg fa gedB|1 BAAG A2Bd:|2 BAAG A2ag||
|:e2eg (3afe dB|edeg (3afe dB|~d3e dBAB|~d2fd ed Bd|
e2eg (3afe dB|edeg (3afe dB|Adfd efdB|1 BAAG A2ag:|2 BAAG A2 (3efg||
|:a2ed efge|a2ed egag|f2dB ~d3e|f2dB defg|
a2ed efge|aeed (3e=fe dB|Adfd efdB|1 BAAB A2 (3efg:|2 BAAG AGEG||

